X:56
T:Kifeküdtem én a magas tetőre
O:Székelydobó
Q:"Moderato"
L:1/4
K:Eb
C/=B,/C/D/ E/D/E/F/ | G<G G z | 
c/c/d/c/ B/A/G/F/ | G<G G z | 
G/F/F/F/ E/E/E/E/ | D C G2 | 
F/F/F/F/ E/E/E/E/ | D<C C z | 